image/icons/logo-icon.svg

<svg width="131" height="21" viewBox="0 0 131 21" fill="none" xmlns="http://www.w3.org/2000/svg">
<path d="M0 0.432098H3.06145L10.535 16.1317L18.0085 0.432098H21.07V20.5679H18.0986V6.25103L11.2854 20.5679H9.78465L2.9414 6.25103V20.5679H0V0.432098Z" fill="#122947"/>
<path d="M31.9844 0.432098H34.9258L43.2998 20.5679H40.1783L38.0773 15.5556H28.8029L26.7619 20.5679H23.6104L31.9844 0.432098ZM37.2369 13.107L33.4551 3.68724L29.6733 13.107H37.2369Z" fill="#122947"/>
<path d="M46.6042 0.432098H55.0382C57.2792 0.432098 59 0.950617 60.2006 1.98765C61.4012 3.02469 62.0015 4.54184 62.0015 6.5391C62.0015 8.01783 61.5913 9.27572 60.7709 10.3128C59.9505 11.3306 58.7899 12.0219 57.2892 12.3868L61.9114 20.5679H58.7299L54.2578 12.6173H49.6656V20.5679H46.6042V0.432098ZM54.5279 10.1399C55.8686 10.1399 56.9291 9.84225 57.7094 9.24691C58.5098 8.63237 58.91 7.72977 58.91 6.5391C58.91 5.2332 58.5198 4.30178 57.7394 3.74486C56.9791 3.18793 55.9086 2.90947 54.5279 2.90947H49.6656V10.1399H54.5279Z" fill="#122947"/>
<path d="M75.3097 21C73.2287 21 71.3479 20.5679 69.6671 19.7037C67.9863 18.8203 66.6656 17.5816 65.7052 15.9877C64.7447 14.3937 64.2645 12.5693 64.2645 10.5144C64.2645 8.45953 64.7447 6.63512 65.7052 5.04115C66.6656 3.44719 67.9863 2.2085 69.6671 1.3251C71.3479 0.441701 73.2287 0 75.3097 0C77.3907 0 79.2716 0.441701 80.9524 1.3251C82.6332 2.2085 83.9538 3.44719 84.9143 5.04115C85.8747 6.63512 86.355 8.45953 86.355 10.5144C86.355 12.5693 85.8747 14.3937 84.9143 15.9877C83.9538 17.5816 82.6332 18.8203 80.9524 19.7037C79.2716 20.5679 77.3907 21 75.3097 21ZM75.3097 18.3498C76.7904 18.3498 78.1311 18.0329 79.3316 17.3992C80.5522 16.7462 81.5127 15.834 82.213 14.6626C82.9133 13.4719 83.2635 12.0892 83.2635 10.5144C83.2635 8.95885 82.9133 7.59534 82.213 6.42387C81.5327 5.2332 80.5922 4.32099 79.3917 3.68724C78.1911 3.03429 76.8505 2.70782 75.3698 2.70782C73.869 2.70782 72.5084 3.02469 71.2878 3.65844C70.0873 4.29218 69.1268 5.20439 68.4065 6.39506C67.7061 7.58573 67.356 8.95885 67.356 10.5144C67.356 12.0892 67.7061 13.4719 68.4065 14.6626C69.1068 15.834 70.0572 16.7462 71.2578 17.3992C72.4784 18.0329 73.829 18.3498 75.3097 18.3498Z" fill="#122947"/>
<path d="M99.9601 21C97.8791 21 95.9982 20.5679 94.3174 19.7037C92.6366 18.8203 91.316 17.5816 90.3556 15.9877C89.3951 14.3937 88.9149 12.5693 88.9149 10.5144C88.9149 8.45953 89.3951 6.63512 90.3556 5.04115C91.316 3.44719 92.6366 2.2085 94.3174 1.3251C95.9982 0.441701 97.8791 0 99.9601 0C102.041 0 103.922 0.441701 105.603 1.3251C107.284 2.2085 108.604 3.44719 109.565 5.04115C110.525 6.63512 111.005 8.45953 111.005 10.5144C111.005 12.5693 110.525 14.3937 109.565 15.9877C108.604 17.5816 107.284 18.8203 105.603 19.7037C103.922 20.5679 102.041 21 99.9601 21ZM99.9601 18.3498C101.441 18.3498 102.781 18.0329 103.982 17.3992C105.203 16.7462 106.163 15.834 106.863 14.6626C107.564 13.4719 107.914 12.0892 107.914 10.5144C107.914 8.95885 107.564 7.59534 106.863 6.42387C106.183 5.2332 105.243 4.32099 104.042 3.68724C102.841 3.03429 101.501 2.70782 100.02 2.70782C98.5194 2.70782 97.1588 3.02469 95.9382 3.65844C94.7376 4.29218 93.7772 5.20439 93.0568 6.39506C92.3565 7.58573 92.0063 8.95885 92.0063 10.5144C92.0063 12.0892 92.3565 13.4719 93.0568 14.6626C93.7572 15.834 94.7076 16.7462 95.9082 17.3992C97.1288 18.0329 98.4794 18.3498 99.9601 18.3498Z" fill="#122947"/>
<path d="M114.312 0.432098H117.223L127.909 15.6132V0.432098H131V20.5679H128.059L117.374 5.38683V20.5679H114.312V0.432098Z" fill="#122947"/>
</svg>

<svg width="131" height="21" fill="none" xmlns="http://www.w3.org/2000/svg"><path d="M0 .432h3.061l7.474 15.7 7.474-15.7h3.061v20.136h-2.971V6.25l-6.814 14.317h-1.5L2.94 6.25v14.317H0V.432zm31.984 0h2.942L43.3 20.568h-3.122l-2.1-5.012h-9.275l-2.041 5.012H23.61L31.984.432zm5.253 12.675l-3.782-9.42-3.782 9.42h7.564zM46.604.432h8.434c2.241 0 3.962.519 5.163 1.556C61.4 3.025 62 4.542 62 6.539c0 1.479-.41 2.737-1.23 3.774-.82 1.018-1.981 1.709-3.482 2.074l4.622 8.18h-3.18l-4.472-7.95h-4.592v7.95h-3.062V.433zm7.924 9.708c1.34 0 2.401-.298 3.181-.893.8-.615 1.201-1.517 1.201-2.708 0-1.306-.39-2.237-1.17-2.794-.76-.557-1.831-.836-3.212-.836h-4.862v7.23h4.862zM75.31 21c-2.081 0-3.962-.432-5.643-1.296-1.68-.884-3.001-2.122-3.962-3.716-.96-1.594-1.44-3.419-1.44-5.474 0-2.054.48-3.879 1.44-5.473.96-1.594 2.281-2.833 3.962-3.716C71.347.442 73.23 0 75.31 0c2.08 0 3.962.442 5.642 1.325 1.681.883 3.002 2.122 3.962 3.716.96 1.594 1.441 3.419 1.441 5.473 0 2.055-.48 3.88-1.44 5.474-.961 1.594-2.282 2.832-3.963 3.716-1.68.864-3.561 1.296-5.642 1.296zm0-2.65c1.48 0 2.821-.317 4.022-.95a7.307 7.307 0 002.881-2.737c.7-1.191 1.05-2.574 1.05-4.149 0-1.555-.35-2.919-1.05-4.09a6.901 6.901 0 00-2.821-2.737c-1.2-.653-2.541-.98-4.022-.98-1.501 0-2.862.318-4.082.951a7.304 7.304 0 00-2.882 2.737c-.7 1.19-1.05 2.564-1.05 4.12 0 1.574.35 2.957 1.05 4.148a7.362 7.362 0 002.852 2.736c1.22.634 2.571.95 4.052.95zM99.96 21c-2.08 0-3.962-.432-5.643-1.296-1.68-.884-3.001-2.122-3.961-3.716-.96-1.594-1.441-3.419-1.441-5.474 0-2.054.48-3.879 1.44-5.473.961-1.594 2.282-2.833 3.962-3.716C95.998.442 97.88 0 99.96 0s3.962.442 5.643 1.325c1.681.883 3.001 2.122 3.962 3.716.96 1.594 1.44 3.419 1.44 5.473 0 2.055-.48 3.88-1.44 5.474-.961 1.594-2.281 2.832-3.962 3.716-1.681.864-3.562 1.296-5.643 1.296zm0-2.65c1.481 0 2.821-.317 4.022-.95a7.301 7.301 0 002.881-2.737c.701-1.191 1.051-2.574 1.051-4.149 0-1.555-.35-2.919-1.051-4.09a6.896 6.896 0 00-2.821-2.737c-1.201-.653-2.541-.98-4.022-.98-1.5 0-2.861.318-4.082.951a7.304 7.304 0 00-2.881 2.737c-.7 1.19-1.05 2.564-1.05 4.12 0 1.574.35 2.957 1.05 4.148a7.363 7.363 0 002.851 2.736c1.22.634 2.571.95 4.052.95zM114.312.432h2.911l10.686 15.181V.433H131v20.135h-2.941L117.374 5.387v15.18h-3.062V.433z" fill="#122947"/></svg>
